dist/svgs/unicons/monochrome/history-alt.svg

<svg xmlns="http://www.w3.org/2000/svg" viewBox="0 0 24 24"><path class="uim-primary" d="M12,2A10.01687,10.01687,0,0,0,5,4.87714V3A1,1,0,0,0,3,3V7.5a.99974.99974,0,0,0,1,1H8.5a1,1,0,0,0,0-2H6.21844A7.99161,7.99161,0,1,1,12,20a1,1,0,0,0,0,2A10,10,0,0,0,12,2Z"/><path class="uim-primary" d="M14,13H12a.99974.99974,0,0,1-1-1V9a1,1,0,0,1,2,0v2h1a1,1,0,0,1,0,2Z"/><path class="uim-tertiary" d="M12,4A8.00807,8.00807,0,0,0,6.21844,6.5H8.5a1,1,0,0,1,0,2H4a.98882.98882,0,0,1-.97583-.88013A9.977,9.977,0,0,0,12,22a1,1,0,0,1,0-2A8,8,0,0,0,12,4Zm2,9H12a.99974.99974,0,0,1-1-1V9a1,1,0,0,1,2,0v2h1a1,1,0,0,1,0,2Z"/></svg>

<svg xmlns="http://www.w3.org/2000/svg" viewBox="0 0 24 24"><path d="M12 2a10.017 10.017 0 00-7 2.877V3a1 1 0 00-2 0v4.5a1 1 0 001 1h4.5a1 1 0 000-2H6.218A7.992 7.992 0 1112 20a1 1 0 000 2 10 10 0 000-20z"/><path d="M14 13h-2a1 1 0 01-1-1V9a1 1 0 012 0v2h1a1 1 0 010 2z"/><path d="M12 4a8.008 8.008 0 00-5.782 2.5H8.5a1 1 0 010 2H4a.989.989 0 01-.976-.88A9.977 9.977 0 0012 22a1 1 0 010-2 8 8 0 000-16zm2 9h-2a1 1 0 01-1-1V9a1 1 0 012 0v2h1a1 1 0 010 2z"/></svg>
